X:1
T:Hark, the Gentle Voice
T:Hark, the Gentle Voice
T:Asa Brooks Everett 
T:Mary Bridges Canedy Slade, 1876
T:Public Domain Courtesy of the Cyber Hymnal™
C:Asa Brooks Everett
Z:Public Domain
Z:Courtesy of the Cyber Hymnal™
%%score ( 1 2 ) ( 3 4 )
L:1/8
Q:1/4=110
M:4/4
K:D
V:1 treble 
V:2 treble 
V:3 bass 
V:4 bass 
V:1
 [DF]2 [DF]2 [DF][DE]D[DE] | [DF]2 [FA]2 [GB]2 [FA]2 | [Fd]2 [GB]2 [FA]2 [DF]2 | %3
w: 1.~Hark! the gen- tle voice of|Je- sus fall- eth|Ten- der- ly up-|
w: 2.~Take His yoke, for He is|meek and low- ly;|Bear His bur- den,|
w: 3.~Then, His lov- ing, ten- der|voice o- bey- ing,|Bear His yoke, His|
 [DF]2 [CE]2 [CE]4 | [DF]2 [DF]2 [DF][DE]D[DE] | [DF]2 [FA]2 [GB]2 [FA]2 | [Fd]2 [DB]2 [DA]2 (DE) | %7
w: on your ear;|Sweet His cry of love and|pi- ty call- eth;|Turn and list- en, *|
w: to Him turn;|He who call- eth is the|Mas- ter ho- ly:|He will teach if *|
w: bur- den take;|Find the yoke His hand is|on you lay- ing,|Light and ea- sy *|
 [DF]2 [CE]2 D4 ||"^Refrain" [Fd]3 [Fd] [Fd]2 [FA]2 | [GB]2 [GB]2 [GB][Ac][Bd][GB] | %10
w: stay and hear.|||
w: you will learn.|Ye that la- bor|and are hea- vy- lad- en,|
w: for His sake.|||
 [FA]3 [GB] [FA]2 [DF]2 | [DF]2 [CE]2 [CE]4 | [DF]2 [DF]2 [DF][DE]D[DE] | [DF]2 [FA]2 [GB]2 [FA]2 | %14
w: ||||
w: Lean up- on your|dear Lord’s breast;|Ye that la- bor and are|hea- vy- la- den,|
w: ||||
 [Fd]2 [DB]2 [DA]2 (DE) | [DF]2 [CE]2 D4 |] %16
w: ||
w: Come, and I will *|give you rest.|
w: ||
V:2
 x6 D x | x8 | x8 | x8 | x6 D x | x8 | x6 D2 | x4 D4 || x8 | x8 | x8 | x8 | x6 D x | x8 | x6 D2 | %15
 x4 D4 |] %16
V:3
 [D,A,]2 [D,A,]2 [D,A,][D,G,][D,F,][D,G,] | [D,A,]2 [D,D]2 [D,D]2 [D,D]2 | %2
 [D,A,]2 [D,D]2 [D,D]2 [D,A,]2 | [A,,A,]2 [A,,A,]2 [A,,A,]4 | %4
 [D,A,]2 [D,A,]2 [D,A,][D,G,][D,F,][D,G,] | [D,A,]2 [D,D]2 [D,D]2 [D,D]2 | %6
 [D,A,]2 (B,C) [F,D]2 [G,B,]2 | A,2 [A,,G,]2 [D,F,]4 || [D,A,]3 [D,A,] [D,A,]2 [D,D]2 | %9
 [G,D]2 [G,D]2 [G,D][G,D][G,D][G,D] | [D,D]3 [D,D] [D,D]2 [D,A,]2 | [A,,A,]2 [A,,A,]2 [A,,A,]4 | %12
 [D,A,]2 [D,A,]2 [D,A,][D,G,][D,F,][D,G,] | [D,A,]2 [D,D]2 [D,D]2 [D,D]2 | %14
 [D,A,]2 (B,C) [F,D]2 [G,B,]2 | A,2 [A,,G,]2 [D,F,]4 |] %16
V:4
 x8 | x8 | x8 | x8 | x8 | x8 | x2 G,2 x4 | A,2 x6 || x8 | x8 | x8 | x8 | x8 | x8 | x2 G,2 x4 | %15
 A,2 x6 |] %16

